symbols/web/laptop_windows/materialsymbolsrounded/laptop_windows_wght200gradN25_48px.svg

<svg xmlns="http://www.w3.org/2000/svg" height="48" width="48"><path d="M2.85 37.5q-.35 0-.575-.225-.225-.225-.225-.575 0-.3.225-.5t.575-.2H8.8v-1.6q-1.1 0-1.925-.825T6.05 31.65V12.8q0-1.1.825-1.925T8.8 10.05h30.4q1.1 0 1.925.825t.825 1.925v18.85q0 1.1-.825 1.925T39.2 34.4V36h6q.3 0 .525.2.225.2.225.5 0 .35-.225.575-.225.225-.525.225Zm5.95-4.65h30.4q.5 0 .85-.325t.35-.875V12.8q0-.5-.35-.85t-.85-.35H8.8q-.5 0-.85.35t-.35.85v18.85q0 .55.35.875.35.325.85.325Zm-1.2 0V11.6v21.25Z"/></svg>

<svg xmlns="http://www.w3.org/2000/svg" height="48" width="48"><path d="M2.85 37.5Q2.5 37.5 2.275 37.275Q2.05 37.05 2.05 36.7Q2.05 36.4 2.275 36.2Q2.5 36 2.85 36H8.8V34.4Q7.7 34.4 6.875 33.575Q6.05 32.75 6.05 31.65V12.8Q6.05 11.7 6.875 10.875Q7.7 10.05 8.8 10.05H39.2Q40.3 10.05 41.125 10.875Q41.95 11.7 41.95 12.8V31.65Q41.95 32.75 41.125 33.575Q40.3 34.4 39.2 34.4V36H45.2Q45.5 36 45.725 36.2Q45.95 36.4 45.95 36.7Q45.95 37.05 45.725 37.275Q45.5 37.5 45.2 37.5ZM8.8 32.85H39.2Q39.7 32.85 40.05 32.525Q40.4 32.2 40.4 31.65V12.8Q40.4 12.3 40.05 11.95Q39.7 11.6 39.2 11.6H8.8Q8.3 11.6 7.95 11.95Q7.6 12.3 7.6 12.8V31.65Q7.6 32.2 7.95 32.525Q8.3 32.85 8.8 32.85ZM7.6 32.85Q7.6 32.85 7.6 32.525Q7.6 32.2 7.6 31.65V12.8Q7.6 12.3 7.6 11.95Q7.6 11.6 7.6 11.6Q7.6 11.6 7.6 11.95Q7.6 12.3 7.6 12.8V31.65Q7.6 32.2 7.6 32.525Q7.6 32.85 7.6 32.85Z"/></svg>
